X:838
T:St Keyna's Cross
T:Ronde from "Danserye" (1551) no. 18
C:Tielman Susato
N:For the dance by Valeria Webster
S:Colin Hume's website,  colinhume.com  - chords can also be printed below the stave.
Q:1/2=104
M:2/2
R:Reel
L:1/4
%%MIDI gchord bc
%%MIDI program 70
%%MIDI chordprog 50
%%MIDI bassprog 43      % Contrabass
K:F
P:A
"F"F2FG | "F"A4 | "F"AB"Am"cA | "Gm"B2 "C"G2 | "Gm"G2G2 | "C"G2G2 | "C"GA "Gm"BG | "F"A2F2 |
"Dm"F2FG | "F"A2A2 | "F"AB "Am"cA | "Gm"B2 "C"G2 | "Gm"GABG | "F"A2 "Gm/Bb"GF | "C7"EDFE | "F"F4 |
P:B
|: "F"c2c2 | "F"A2A2 | "Bb"d2d2 | "F"c4 | "F"ABcA | "Bb"BA "Gm/Bb"GF | "C7"EDFE | "F"F4 :|
%%MIDI gchord bcbc
%%MIDI program 65
%%MIDI chordprog 56
%%MIDI bassprog 57
P:C
"F"FF/G/ "F"A2 | "F"A/B/ "(Am)"c/A/ "Gm"B "(C)"G | "Gm"GG "C"GG | "C"G/A/ "(Gm)"B/G/ "F"AF |
"Dm"FF/G/ "F"AA | "F"A/B/ "(Am)"c/A/ "Gm"B "(C)"G | "Gm"G/A/B/G/ "F"A "(Gm/Bb)"G/F/ | "C7"E/D/F/E/ "F"F2 |
P:D
|: "F"cc AA | "Bb"dd "F"c2 | "F"A/B/c/A/ "Bb"B/A/ "Gm/Bb"G/F/ | "C7"E/D/F/E/ "F"F2 :|

